packages/kaspersky-hexa-ui-icons/src/iconsSVGs/24/ArrowTurnOver.svg

<svg width="24" height="24" viewBox="0 0 24 24" fill="none" xmlns="http://www.w3.org/2000/svg">
<path d="M11.2934 3.09236C11.684 2.70184 11.684 2.06867 11.2934 1.67815C10.9029 1.28762 10.2698 1.28762 9.87923 1.67815L5.27507 6.28231C4.88455 6.67283 4.88455 7.306 5.27507 7.69652L9.87923 12.3007C10.2698 12.6912 10.9029 12.6912 11.2934 12.3007C11.684 11.9102 11.684 11.277 11.2934 10.8865L8.40697 8H14.1155C17.3987 8 20 10.5762 20 13.716C20 16.7682 17.4745 19 14.0972 19H4C3.44772 19 3 19.4477 3 20C3 20.5523 3.44772 21 4 21H14.0972C18.3444 21 22 18.0936 22 13.716C22 9.42594 18.457 6 14.1155 6H8.38581L11.2934 3.09236Z" fill="black"/>
</svg>

<svg xmlns="http://www.w3.org/2000/svg" width="24" height="24" fill="none" viewBox="0 0 24 24"><path fill="#000" d="M11.2934 3.0924c.3906-.3906.3906-1.0237 0-1.4142-.3905-.3906-1.0236-.3906-1.4142 0l-4.6041 4.604c-.3906.3905-.3906 1.0237 0 1.4142l4.6041 4.6042c.3906.3905 1.0237.3905 1.4142 0 .3906-.3905.3906-1.0237 0-1.4142L8.407 8h5.7085C17.3987 8 20 10.5762 20 13.716 20 16.7682 17.4745 19 14.0972 19H4c-.5523 0-1 .4477-1 1s.4477 1 1 1h10.0972C18.3444 21 22 18.0936 22 13.716 22 9.426 18.457 6 14.1155 6H8.3858z"/></svg>
